collateral/TBTC.svg

<svg width="42" height="42" viewBox="0 0 42 42" fill="none" xmlns="http://www.w3.org/2000/svg">
<g clip-path="url(#clip0_9250_18281)">
<path d="M21.2392 42C32.8373 42 42.2393 32.598 42.2393 21C42.2393 9.402 32.8373 0 21.2392 0C9.64127 0 0.239258 9.402 0.239258 21C0.239258 32.598 9.64127 42 21.2392 42Z" fill="#1D2229"/>
<path d="M17.7578 19.2405H14.2415V22.757H17.7578V19.2405Z" fill="white"/>
<path d="M14.2415 15.7242H10.7251V19.2405H14.2415V15.7242Z" fill="white"/>
<path d="M10.7244 19.2405H7.20801V22.757H10.7244V19.2405Z" fill="white"/>
<path d="M14.2415 22.7568H10.7251V26.2733H14.2415V22.7568Z" fill="white"/>
<path d="M34.2302 16.4816C33.9824 13.8954 31.7502 13.0273 28.9311 12.7794V11.1228H26.7482V12.6849C26.1746 12.6849 25.588 12.6959 25.0048 12.7069V11.1215H22.8234V12.7774C22.3507 12.7865 19.4474 12.7839 19.4474 12.7839L19.4408 14.7085L21.2626 14.7188V27.3324H19.4416L19.4253 29.2297C19.9543 29.2297 22.308 29.2402 22.8181 29.2433V30.8786H24.9997V29.2822C25.5978 29.2952 26.1778 29.3004 26.7437 29.2996V30.8791H28.9272V29.2512C32.5983 29.0421 35.1689 28.1182 35.488 24.6719C35.7469 21.896 34.442 20.6582 32.3582 20.1547C33.6243 19.5073 34.4147 18.3743 34.2302 16.4816ZM31.1715 24.2387C31.1715 26.9504 26.5293 26.6405 25.0482 26.641V21.8339C26.5287 21.8339 31.1707 21.4111 31.1715 24.2387ZM30.1584 17.4558C30.1584 19.9229 26.2846 19.6335 25.0514 19.6335V15.273C26.2865 15.2736 30.1597 14.8826 30.1584 17.4558Z" fill="white"/>
</g>
<defs>
<clipPath id="clip0_9250_18281">
<rect width="42" height="42" rx="21" fill="white"/>
</clipPath>
</defs>
</svg>

<svg width="42" height="42" fill="none" viewBox="0 0 42 42" xmlns="http://www.w3.org/2000/svg">
  <g clip-path="url(#a)">
    <path fill="#1D2229" d="M21.24 42c11.597 0 21-9.402 21-21s-9.403-21-21-21c-11.6 0-21 9.402-21 21s9.401 21 21 21"/>
    <path fill="#fff" d="M17.758 19.24h-3.516v3.517h3.516z"/>
    <path fill="#fff" d="M14.242 15.724h-3.517v3.517h3.517zm-3.518 3.516H7.208v3.517h3.516zm3.518 3.517h-3.517v3.516h3.517zm19.988-6.275c-.248-2.587-2.48-3.455-5.299-3.703v-1.656h-2.183v1.562c-.573 0-1.16.01-1.743.022V11.12h-2.182v1.656c-.472.01-3.376.007-3.376.007l-.006 1.925 1.822.01v12.613h-1.821l-.017 1.898c.53 0 2.883.01 3.393.013v1.636H25v-1.597q.896.019 1.744.018v1.58h2.183V29.25c3.671-.209 6.242-1.133 6.561-4.58.259-2.775-1.046-4.013-3.13-4.516 1.266-.648 2.057-1.78 1.872-3.673m-3.058 7.757c0 2.711-4.643 2.401-6.124 2.402v-4.807c1.48 0 6.123-.423 6.124 2.405m-1.014-6.783c0 2.467-3.873 2.178-5.107 2.178v-4.361c1.236 0 5.109-.39 5.107 2.183"/>
  </g>
  <defs>
    <clipPath id="a">
      <rect width="42" height="42" fill="#fff" rx="21"/>
    </clipPath>
  </defs>
</svg>
